X: 15539
T: Glenties, The
R: mazurka
M: 3/4
K: Dmajor
de|:f2fedB|A<F A2FA|B<G B2BG|A<F A2de|
f2fedB|A<F A2FA|B2c2A2|d4de:|

